svgs/total_commander.svg

<svg width="192" height="192" viewBox="0 0 192 192" fill="none" xmlns="http://www.w3.org/2000/svg">
<path d="M46 162H146C154.837 162 162 154.837 162 146V60L132 30H46C37.1634 30 30 37.1634 30 46V146C30 154.837 37.1634 162 46 162Z" stroke="black" stroke-width="12" stroke-linejoin="round"/>
<path d="M54 160V110C54 105.582 57.5817 102 62 102H130C134.418 102 138 105.582 138 110V160" stroke="black" stroke-width="12" stroke-linecap="round" stroke-linejoin="round"/>
<path d="M132 30V74C132 78.4183 128.418 82 124 82H62C57.5817 82 54 78.4183 54 74V30" stroke="black" stroke-width="12" stroke-linecap="round" stroke-linejoin="round"/>
<path d="M74 122H118" stroke="black" stroke-width="12" stroke-linecap="round" stroke-linejoin="round"/>
<path d="M74 142H118" stroke="black" stroke-width="12" stroke-linecap="round" stroke-linejoin="round"/>
<rect x="98" y="44" width="20" height="24" rx="6" fill="black"/>
</svg>

<svg xmlns="http://www.w3.org/2000/svg" width="192" height="192" fill="none" xmlns:v="https://vecta.io/nano"><g stroke="#000" stroke-width="12" stroke-linejoin="round"><path d="M46 162h100c8.837 0 16-7.163 16-16V60l-30-30H46c-8.837 0-16 7.163-16 16v100c0 8.837 7.163 16 16 16z"/><path d="M54 160v-50a8 8 0 0 1 8-8h68a8 8 0 0 1 8 8v50m-6-130v44a8 8 0 0 1-8 8H62a8 8 0 0 1-8-8V30m20 92h44m-44 20h44" stroke-linecap="round"/></g><rect x="98" y="44" width="20" height="24" rx="6" fill="#000"/></svg>
